img/mail.svg

<svg width="18" height="18" viewBox="0 0 18 18" fill="none" xmlns="http://www.w3.org/2000/svg">
<path d="M16.418 2.67188H1.58203C0.707941 2.67188 0 3.38421 0 4.25391V13.7461C0 14.621 0.713145 15.3281 1.58203 15.3281H16.418C17.2847 15.3281 18 14.6239 18 13.7461V4.25391C18 3.38576 17.2949 2.67188 16.418 2.67188ZM16.1964 3.72656C15.8732 4.04807 10.3107 9.58124 10.1187 9.77228C9.81984 10.0711 9.42258 10.2356 9 10.2356C8.57742 10.2356 8.18016 10.0711 7.88034 9.77129C7.75118 9.6428 2.25011 4.17073 1.80359 3.72656H16.1964ZM1.05469 13.5314V4.46924L5.61227 9.00281L1.05469 13.5314ZM1.80425 14.2734L6.36005 9.74661L7.13556 10.518C7.63358 11.0161 8.29571 11.2903 9 11.2903C9.70429 11.2903 10.3664 11.0161 10.8635 10.519L11.64 9.74661L16.1957 14.2734H1.80425ZM16.9453 13.5314L12.3877 9.00281L16.9453 4.46924V13.5314Z" fill="#3B3B3B"/>
</svg>

<svg width="18" height="18" fill="none" xmlns="http://www.w3.org/2000/svg"><path d="M16.418 2.672H1.582C.708 2.672 0 3.384 0 4.254v9.492c0 .875.713 1.582 1.582 1.582h14.836c.867 0 1.582-.704 1.582-1.582V4.254c0-.868-.705-1.582-1.582-1.582Zm-.222 1.055L10.12 9.772A1.572 1.572 0 0 1 9 10.236c-.423 0-.82-.165-1.12-.465L1.804 3.727h14.392ZM1.055 13.53V4.47l4.557 4.534-4.557 4.528Zm.75.742L6.36 9.747l.776.771A2.62 2.62 0 0 0 9 11.29c.704 0 1.366-.274 1.864-.771l.776-.772 4.556 4.526H1.804Zm15.14-.742-4.557-4.528 4.557-4.534v9.062Z" fill="#3B3B3B"/></svg>
